X: 222
T: 6. La Nouvelle Anglaise
T: la Nouvelle Anglaise
B: Robert Landrin "Potpourri fran\,cois des contre-danse ancienne tel quil se danse chez la Reine ..." 1760 p.22 #2 dance 07 #6
S: http://memory.loc.gov/cgi-bin/query/D?musdibib:2:./temp/~ammem_EbRS:
Z: 2014 John Chambers <jc:trillian.mit.edu>
M: 2/4
L: 1/8
K: G
% - - - - - - - - - - - - - - - - - - - - - - - - -
|: !segno!\
G2 Bd | cAFD | GB dg | d2 {c}B2 |\
ceAc | BdGB | AcDF | G2G2 :|
|:\
"4.F."gbeg | fadf | egAc | d2d2 |\
ceAc | BdGB | AB DF | G2 G2 !segno!:|
% - - - - - - - - - - - - - - - - - - - - - - - - -

%%sep 1 1 500
%%sep 1 1 500
